X:56
T:Bonny Toun o' Kenmore, The
R:Strathspey
B:The Athole Collection
M:C
L:1/8
K:G
B|d>d d<B d>Bd>B|eeg>f e2 e>f|g>e d<B A>B A<B|G<E E>D G3:|
d|g2 g>b B>A B<A|E<A A>B A<af<a|g/f/e/d/ B<g c>BA>G|
F/G/A D>d B<G G>d|g2 g<b B>A B<G|E<A A>B A<a f>a|
g/f/e/d/ B>g d<B A>G|F/G/A D>d B>GG||

